images/advance-master.svg

<?xml version="1.0" encoding="UTF-8"?>
<svg width="616px" height="394px" viewBox="0 0 616 394" version="1.1" xmlns="http://www.w3.org/2000/svg" xmlns:xlink="http://www.w3.org/1999/xlink">
    <!-- Generator: Sketch 56.3 (81716) - https://sketch.com -->
    <title>images/advance-master</title>
    <desc>Created with Sketch.</desc>
    <g id="03---Branch-Progression-3" stroke="none" stroke-width="1" fill="none" fill-rule="evenodd">
        <path id="Line" d="M267,213 L317,213 L317,214 L267,214 L267,218 L258,213.5 L267,209 L267,213 Z" fill="#8F8981" fill-rule="nonzero"></path>
        <path id="Line-3" d="M410.721922,227.713594 L463.132456,245.183772 L462.816228,246.132456 L410.405694,228.662278 L409.140783,232.457011 L402.025658,225.341886 L411.986833,223.918861 L410.721922,227.713594 Z" fill="#8F8981" fill-rule="nonzero"></path>
        <path id="Line-4" d="M411.34021,198.178689 L462.803389,179.861286 L463.138714,180.803389 L411.675535,199.120792 L413.016833,202.889202 L403.028949,201.667662 L409.998911,194.410279 L411.34021,198.178689 Z" fill="#8F8981" fill-rule="nonzero"></path>
        <path id="Line-2" d="M122,213 L172,213 L172,214 L122,214 L122,218 L113,213.5 L122,209 L122,213 Z" fill="#8F8981" fill-rule="nonzero"></path>
        <g id="other" transform="translate(317.000000, 197.000000)">
            <rect id="Rectangle-2" fill="#EFEFE7" fill-rule="evenodd" x="0" y="0" width="86" height="33"></rect>
            <text id="master" stroke="#979797" stroke-width="1" font-family="RobotoMono-Regular, Roboto Mono" font-size="12" font-weight="normal" fill="#000000">
                <tspan x="24.9941406" y="21">f30ab</tspan>
            </text>
        </g>
        <g id="other" transform="translate(172.000000, 197.000000)">
            <rect id="Rectangle-2" fill="#EFEFE7" fill-rule="evenodd" x="0" y="0" width="86" height="33"></rect>
            <text id="master" stroke="#979797" stroke-width="1" font-family="RobotoMono-Regular, Roboto Mono" font-size="12" font-weight="normal" fill="#000000">
                <tspan x="24.9970703" y="21">34ac2</tspan>
            </text>
        </g>
        <g id="other" transform="translate(27.000000, 197.000000)">
            <rect id="Rectangle-2" fill="#EFEFE7" fill-rule="evenodd" x="0" y="0" width="86" height="33"></rect>
            <text id="master" stroke="#979797" stroke-width="1" font-family="RobotoMono-Regular, Roboto Mono" font-size="12" font-weight="normal" fill="#000000">
                <tspan x="24.9970703" y="21">98ca9</tspan>
            </text>
        </g>
        <g id="other" transform="translate(462.000000, 230.000000)">
            <rect id="Rectangle-2" fill="#EFEFE7" fill-rule="evenodd" x="0" y="0" width="86" height="33"></rect>
            <text id="master" stroke="#979797" stroke-width="1" font-family="RobotoMono-Regular, Roboto Mono" font-size="12" font-weight="normal" fill="#000000">
                <tspan x="24.9970703" y="21">87ab2</tspan>
            </text>
        </g>
        <g id="other" transform="translate(462.000000, 164.000000)">
            <rect id="Rectangle-2" fill="#EFEFE7" fill-rule="evenodd" x="0" y="0" width="86" height="33"></rect>
            <text id="master" stroke="#979797" stroke-width="1" font-family="RobotoMono-Regular, Roboto Mono" font-size="12" font-weight="normal" fill="#000000">
                <tspan x="24.9970703" y="21">c2b9e</tspan>
            </text>
        </g>
        <path id="Line-8" d="M506,272 L506,302 L505,302 L505,272 L501,272 L505.5,263 L510,272 L506,272 Z" fill="#8F8981" fill-rule="nonzero"></path>
        <g id="ref-2" transform="translate(462.000000, 292.000000)">
            <rect id="Rectangle-2" fill="#F44D27" x="0" y="0" width="85.2037037" height="33"></rect>
            <text id="master" stroke="#979797" font-family="RobotoMono-Regular, Roboto Mono" font-size="11.1428571" font-weight="normal" fill="#FFFFFF">
                <tspan x="18.9503581" y="20">testing</tspan>
            </text>
        </g>
        <path id="Line-7" d="M505,155 L505,126 L506,126 L506,155 L510,155 L505.5,164 L501,155 L505,155 Z" fill="#8F8981" fill-rule="nonzero"></path>
        <g id="ref" transform="translate(462.000000, 103.000000)">
            <rect id="Rectangle-2" fill="#F44D27" x="0" y="0" width="85.2037037" height="33"></rect>
            <text id="master" stroke="#979797" font-family="RobotoMono-Regular, Roboto Mono" font-size="11.1428571" font-weight="normal" fill="#FFFFFF">
                <tspan x="22.2937593" y="20">master</tspan>
            </text>
        </g>
        <path id="Line-11" d="M506,94 L506,60 L507,60 L507,94 L511,94 L506.5,103 L502,94 L506,94 Z" fill="#8F8981" fill-rule="nonzero"></path>
        <g id="goldref-3" transform="translate(462.000000, 42.000000)">
            <rect id="Rectangle-3" fill="#CD9F00" x="0" y="0" width="86" height="33"></rect>
            <text id="master-2" stroke="#979797" font-family="RobotoMono-Regular, Roboto Mono" font-size="11.1428571" font-weight="normal" fill="#FFFFFF">
                <tspan x="29.3763951" y="20">HEAD</tspan>
            </text>
        </g>
    </g>
</svg>

<?xml version="1.0" encoding="UTF-8" standalone="no"?>
<svg
   xmlns:dc="http://purl.org/dc/elements/1.1/"
   xmlns:cc="http://creativecommons.org/ns#"
   xmlns:rdf="http://www.w3.org/1999/02/22-rdf-syntax-ns#"
   xmlns:svg="http://www.w3.org/2000/svg"
   xmlns="http://www.w3.org/2000/svg"
   id="svg70"
   version="1.1"
   viewBox="0 0 616 394"
   height="394px"
   width="616px">
  <metadata
     id="metadata76">
    <rdf:RDF>
      <cc:Work
         rdf:about="">
        <dc:format>image/svg+xml</dc:format>
        <dc:type
           rdf:resource="http://purl.org/dc/dcmitype/StillImage" />
        <dc:title>images/advance-master</dc:title>
      </cc:Work>
    </rdf:RDF>
  </metadata>
  <defs
     id="defs74" />
  <!-- Generator: Sketch 56.3 (81716) - https://sketch.com -->
  <title
     id="title2">images/advance-master</title>
  <desc
     id="desc4">Created with Sketch.</desc>
  <g
     id="g5575">
    <path
       style="fill:#8f8981;fill-rule:nonzero;stroke:none;stroke-width:1"
       d="m 267,213 h 50 v 1 h -50 v 4 l -9,-4.5 9,-4.5 z"
       id="Line" />
    <path
       style="fill:#8f8981;fill-rule:nonzero;stroke:none;stroke-width:1"
       d="m 410.72192,227.71359 52.41054,17.47018 -0.31623,0.94869 -52.41054,-17.47018 -1.26491,3.79473 -7.11512,-7.11512 9.96117,-1.42303 z"
       id="Line-3" />
    <path
       style="fill:#8f8981;fill-rule:nonzero;stroke:none;stroke-width:1"
       d="m 411.34021,198.17869 51.46318,-18.3174 0.33532,0.9421 -51.46317,18.3174 1.34129,3.76841 -9.98788,-1.22154 6.96996,-7.25738 z"
       id="Line-4" />
    <path
       style="fill:#8f8981;fill-rule:nonzero;stroke:none;stroke-width:1"
       d="m 122,213 h 50 v 1 h -50 v 4 l -9,-4.5 9,-4.5 z"
       id="Line-2" />
    <g
       style="fill:none;fill-rule:evenodd;stroke:none;stroke-width:1"
       transform="translate(317,197)"
       id="other">
      <rect
         style="fill:#efefe7;fill-rule:evenodd"
         height="33"
         width="86"
         y="0"
         x="0"
         id="Rectangle-2" />
      <text
         style="font-weight:normal;font-size:12px;font-family:RobotoMono-Regular, 'Roboto Mono';fill:#000000;stroke:#979797;stroke-width:0.4;stroke-miterlimit:4;stroke-dasharray:none"
         font-weight="normal"
         font-size="12"
         id="master">
        <tspan
           id="tspan11"
           y="21"
           x="24.994141"
           style="stroke-width:0.4;stroke-miterlimit:4;stroke-dasharray:none;-inkscape-font-specification:'Roboto Mono, Bold';font-family:'Roboto Mono';font-weight:bold;font-style:normal;font-stretch:normal;font-variant:normal;font-size:12px;text-anchor:start;text-align:start;writing-mode:lr;font-variant-ligatures:normal;font-variant-caps:normal;font-variant-numeric:normal;font-feature-settings:normal;fill:#979797;fill-opacity:1">f30ab</tspan>
      </text>
    </g>
    <g
       style="fill:none;fill-rule:evenodd;stroke:none;stroke-width:1"
       transform="translate(172,197)"
       id="g21">
      <rect
         style="fill:#efefe7;fill-rule:evenodd"
         height="33"
         width="86"
         y="0"
         x="0"
         id="rect15" />
      <text
         style="font-weight:normal;font-size:12px;font-family:RobotoMono-Regular, 'Roboto Mono';fill:#979797;stroke:#979797;stroke-width:0.4;stroke-miterlimit:4;stroke-dasharray:none;fill-opacity:1"
         font-weight="normal"
         font-size="12"
         id="text19">
        <tspan
           id="tspan17"
           y="21"
           x="24.99707"
           style="stroke-width:0.4;stroke-miterlimit:4;stroke-dasharray:none;fill:#979797;fill-opacity:1;-inkscape-font-specification:'Roboto Mono, Bold';font-family:'Roboto Mono';font-weight:bold;font-style:normal;font-stretch:normal;font-variant:normal;font-size:12px;text-anchor:start;text-align:start;writing-mode:lr;font-variant-ligatures:normal;font-variant-caps:normal;font-variant-numeric:normal;font-feature-settings:normal">34ac2</tspan>
      </text>
    </g>
    <g
       style="fill:none;fill-rule:evenodd;stroke:none;stroke-width:1"
       transform="translate(27,197)"
       id="g29">
      <rect
         style="fill:#efefe7;fill-rule:evenodd"
         height="33"
         width="86"
         y="0"
         x="0"
         id="rect23" />
      <text
         style="font-weight:bold;font-size:12px;font-family:'Roboto Mono';fill:#979797;stroke:#979797;stroke-width:0.4;-inkscape-font-specification:'Roboto Mono, Bold';font-style:normal;font-stretch:normal;font-variant:normal;text-anchor:start;text-align:start;writing-mode:lr;font-variant-ligatures:normal;font-variant-caps:normal;font-variant-numeric:normal;font-feature-settings:normal;fill-opacity:1;stroke-miterlimit:4;stroke-dasharray:none"
         font-weight="normal"
         font-size="12"
         id="text27">
        <tspan
           id="tspan25"
           y="21"
           x="24.99707"
           style="-inkscape-font-specification:'Roboto Mono, Bold';font-family:'Roboto Mono';font-weight:bold;font-style:normal;font-stretch:normal;font-variant:normal;font-size:12px;text-anchor:start;text-align:start;writing-mode:lr;font-variant-ligatures:normal;font-variant-caps:normal;font-variant-numeric:normal;font-feature-settings:normal;fill:#979797;fill-opacity:1;stroke-width:0.4;stroke-miterlimit:4;stroke-dasharray:none">98ca9</tspan>
      </text>
    </g>
    <g
       style="fill:none;fill-rule:evenodd;stroke:none;stroke-width:1"
       transform="translate(462,230)"
       id="g37">
      <rect
         style="fill:#efefe7;fill-rule:evenodd"
         height="33"
         width="86"
         y="0"
         x="0"
         id="rect31" />
      <text
         style="font-weight:normal;font-size:12px;font-family:RobotoMono-Regular, 'Roboto Mono';fill:#000000;stroke:#979797;stroke-width:0.4;stroke-miterlimit:4;stroke-dasharray:none"
         font-weight="normal"
         font-size="12"
         id="text35">
        <tspan
           id="tspan33"
           y="21"
           x="24.99707"
           style="fill:#979797;fill-opacity:1;stroke-width:0.4;stroke-miterlimit:4;stroke-dasharray:none;-inkscape-font-specification:'Roboto Mono, Bold';font-family:'Roboto Mono';font-weight:bold;font-style:normal;font-stretch:normal;font-variant:normal;font-size:12px;text-anchor:start;text-align:start;writing-mode:lr;font-variant-ligatures:normal;font-variant-caps:normal;font-variant-numeric:normal;font-feature-settings:normal">87ab2</tspan>
      </text>
    </g>
    <g
       style="fill:none;fill-rule:evenodd;stroke:none;stroke-width:1"
       transform="translate(462,164)"
       id="g45">
      <rect
         style="fill:#efefe7;fill-rule:evenodd"
         height="33"
         width="86"
         y="0"
         x="0"
         id="rect39" />
      <text
         style="font-weight:normal;font-size:12px;font-family:RobotoMono-Regular, 'Roboto Mono';fill:#000000;stroke:#979797;stroke-width:0.4;stroke-miterlimit:4;stroke-dasharray:none"
         font-weight="normal"
         font-size="12"
         id="text43">
        <tspan
           id="tspan41"
           y="21"
           x="24.99707"
           style="-inkscape-font-specification:'Roboto Mono, Bold';font-family:'Roboto Mono';font-weight:bold;font-style:normal;font-stretch:normal;font-variant:normal;font-size:12px;text-anchor:start;text-align:start;writing-mode:lr;font-variant-ligatures:normal;font-variant-caps:normal;font-variant-numeric:normal;font-feature-settings:normal;fill:#979797;fill-opacity:1;stroke-width:0.4;stroke-miterlimit:4;stroke-dasharray:none">c2b9e</tspan>
      </text>
    </g>
    <path
       style="fill:#8f8981;fill-rule:nonzero;stroke:none;stroke-width:1"
       d="m 506,272 v 30 h -1 v -30 h -4 l 4.5,-9 4.5,9 z"
       id="Line-8" />
    <g
       style="fill:none;fill-rule:evenodd;stroke:none;stroke-width:1"
       transform="translate(462,292)"
       id="ref-2">
      <rect
         style="fill:#f44d27"
         height="33"
         width="85.203705"
         y="0"
         x="0"
         id="rect48" />
      <text
         style="font-weight:normal;font-size:11.14285755px;font-family:RobotoMono-Regular, 'Roboto Mono';fill:#ffffff;stroke:#979797;stroke-width:0.4;stroke-miterlimit:4;stroke-dasharray:none"
         font-weight="normal"
         font-size="11.1428571"
         id="text52">
        <tspan
           id="tspan50"
           y="20"
           x="18.950357"
           style="-inkscape-font-specification:'Roboto Mono, Bold';font-family:'Roboto Mono';font-weight:bold;font-style:normal;font-stretch:normal;font-variant:normal;font-size:11.14279938px;text-anchor:start;text-align:start;writing-mode:lr;font-variant-ligatures:normal;font-variant-caps:normal;font-variant-numeric:normal;font-feature-settings:normal;fill:#979797;fill-opacity:1;stroke-width:0.4;stroke-miterlimit:4;stroke-dasharray:none">testing</tspan>
      </text>
    </g>
    <path
       style="fill:#8f8981;fill-rule:nonzero;stroke:none;stroke-width:1"
       d="m 505,155 v -29 h 1 v 29 h 4 l -4.5,9 -4.5,-9 z"
       id="Line-7" />
    <g
       style="fill:none;fill-rule:evenodd;stroke:none;stroke-width:1"
       transform="translate(462,103)"
       id="ref">
      <rect
         style="fill:#f44d27"
         height="33"
         width="85.203705"
         y="0"
         x="0"
         id="rect56" />
      <text
         style="font-weight:normal;font-size:11.14285755px;font-family:RobotoMono-Regular, 'Roboto Mono';fill:#ffffff;stroke:#979797;stroke-width:0.4;stroke-miterlimit:4;stroke-dasharray:none"
         font-weight="normal"
         font-size="11.1428571"
         id="text60">
        <tspan
           id="tspan58"
           y="20"
           x="22.293758"
           style="-inkscape-font-specification:'Roboto Mono, Bold';font-family:'Roboto Mono';font-weight:bold;font-style:normal;font-stretch:normal;font-variant:normal;font-size:11.14279938px;text-anchor:start;text-align:start;writing-mode:lr;font-variant-ligatures:normal;font-variant-caps:normal;font-variant-numeric:normal;font-feature-settings:normal;stroke-width:0.4;stroke-miterlimit:4;stroke-dasharray:none;fill:#979797;fill-opacity:1">master</tspan>
      </text>
    </g>
    <path
       style="fill:#8f8981;fill-rule:nonzero;stroke:none;stroke-width:1"
       d="M 506,94 V 60 h 1 v 34 h 4 l -4.5,9 -4.5,-9 z"
       id="Line-11" />
    <g
       style="fill:none;fill-rule:evenodd;stroke:none;stroke-width:1"
       transform="translate(462,42)"
       id="goldref-3">
      <rect
         style="fill:#cd9f00"
         height="33"
         width="86"
         y="0"
         x="0"
         id="Rectangle-3" />
      <text
         style="font-weight:normal;font-size:11.14285755px;font-family:RobotoMono-Regular, 'Roboto Mono';fill:#ffffff;stroke:#979797;stroke-width:0.4;stroke-miterlimit:4;stroke-dasharray:none"
         font-weight="normal"
         font-size="11.1428571"
         id="master-2">
        <tspan
           id="tspan65"
           y="20"
           x="29.376394"
           style="fill:#979797;fill-opacity:1;stroke-width:0.4;stroke-miterlimit:4;stroke-dasharray:none;-inkscape-font-specification:'Roboto Mono, Bold';font-family:'Roboto Mono';font-weight:bold;font-style:normal;font-stretch:normal;font-variant:normal;font-size:11.14279938px;text-anchor:start;text-align:start;writing-mode:lr;font-variant-ligatures:normal;font-variant-caps:normal;font-variant-numeric:normal;font-feature-settings:normal">HEAD</tspan>
      </text>
    </g>
  </g>
</svg>
